X: 3
T: My Only Jo and Deary O
M: 4/4
L: 1/8
S: Wilson's Companion to the Ballroom, London 1816
S: O'Neill's "Waifs and Strays of Gaelic Melody" 1922, 1924
S: Gow − 3rd Repository (1806)
N: The "Jo" in the title is often misspelled "Joe".
R: Air
K: Em
B2 |\
"Em"e3 f "B7"gf e^d | "Em"e2 B2 B3 G | "Am"A3 c "B7"BA GF | "Em"G2 E2 E2 :|
B2 |\
"Em"e3 f g2 e2 | "B7"f2 ^d2 B2 z B | "Em"e3 f g2 fe | "D"f2 d2 d2 ||
ef |\
"C"g2 e2 "B7"gf e^d | "Em"e2 B2 B2 G2 | "Am"A3 c "B7"BA GF | "Em"G2 E2 E2 |]
